X: 19103
P: Lady Georgina Gordon's Strathspey
C: William Marshall
C: arr. T. Traub 5-6-2000
B: RSCDS 19-11
R: strathspey
M: 4/4
K: F
L: 1/8
|:C| "F"F/F/F F>F A>F A<c|"Bb"d<f "F"c>A "C"G2 GA| "F"F/F/F F>F A>F A<c|"Bb"d<f "C"c>A "F"F2 F :|
|: c |"F"f>g a>g a/g/f/d/ cf|"Bb"d<f "F"c>A "C"G2 G2|"F"f>g a>g a/g/f/d/ cf|"Bb "d<f "C"c>A "F"F2 F :|
|: D |"F"CFA,F "Bb"CFBd|"F"cAFA "C"G2 G2|"F"CFA,F "Bb"CFBd|"C"cAGA "F"F2 F :|
c |"F"f>g a>g a/g/f/d/ cf|"F"c>d f>a "C"g2 g2|"F"f>g a>g a/g/f/d/ cf|"Bb"d<f "C"c>A "F"F2 F2|
"F"f>g a>g a/g/f/d/ cf|"F"c>d f>a "C"g2 g2|"Bb"b/a/g/f/ "C"a/g/f/e/ "F"f<c "Bb"d<f|"C"c>B A>G "F"F2 F |]
%%center Book19/19111-LadyGeorginaGordonsS.abc

%%sep 1 1 500
%%sep 1 1 500

